X: 24
M:6/8
L:1/8
K:G
|:gbg faf | ege dcB | gbg faf | g2a bge |
gbg faf | ege def | gfe dcB | ABA BGE :|


